24x24/apps/citra.svg

<svg xmlns="http://www.w3.org/2000/svg" width="24" height="24" version="1.1">
 <path style="opacity:0.2" d="m 12,2.5 a 10,10 0 0 0 -10,10 10,10 0 0 0 10,10 10,10 0 0 0 10,-10 10,10 0 0 0 -10,-10 z"/>
 <path style="fill:#ff9426" d="M 12,2 A 10,10 0 0 0 2,12 10,10 0 0 0 12,22 10,10 0 0 0 22,12 10,10 0 0 0 12,2 Z"/>
 <circle style="opacity:0.2" cx="12" cy="12.5" r="8.5"/>
 <circle style="fill:#f4f4f7" cx="12" cy="12" r="8.5"/>
 <path style="opacity:0.2;fill:#f4f4f7" d="M 12,2 A 10,10 0 0 0 2.0705,10.926 10,9.5 0 0 1 12,2.5 10,9.5 0 0 1 21.961,11.2235 10,10 0 0 0 12,2 Z m 9.961,9.2235 A 10,10 0 0 1 22,12 10,9.5 0 0 0 21.961,11.2235 Z M 2.0705,10.926 A 10,9.5 0 0 0 2.0461,11.122 10,10 0 0 1 2.0705,10.926 Z M 2.0461,11.122 A 10,10 0 0 0 2.0002,12 10,9.5 0 0 1 2.0461,11.122 Z"/>
 <path style="fill:#d2e015" d="m 11.982422,4.5 c -0.824659,-0.00455 -1.593657,0.1878227 -1.964844,0.3974609 5e-4,0.00309 4.77e-4,0.00273 10e-4,0.00586 0.03154,0.1890561 0.105097,0.4829851 0.207031,0.8291016 0.203869,0.6922325 0.522051,1.6054455 0.853516,2.5078125 0.441755,1.202616 0.657991,1.722381 0.919922,2.3798825 0.264971,-0.657005 0.485496,-1.1786785 0.930664,-2.381836 0.333742,-0.902005 0.651879,-1.8141665 0.853516,-2.5048825 0.100818,-0.345358 0.172307,-0.638085 0.201171,-0.8242186 C 13.590737,4.699673 12.806301,4.50455 11.982422,4.5 Z"/>
 <path style="fill:#c74a30" d="m 11.999024,13.379883 c -0.261932,0.657502 -0.478168,1.177267 -0.919922,2.379883 -0.331465,0.902367 -0.649647,1.815579 -0.853516,2.507812 -0.101935,0.346116 -0.175486,0.640045 -0.207031,0.829101 -5.5e-4,0.0032 -4.8e-4,0.0027 -10e-4,0.0059 0.371162,0.209639 1.140184,0.402011 1.964844,0.397461 0.823879,-0.0045 1.608315,-0.199673 2.001953,-0.409179 C 13.955486,18.904687 13.883998,18.61196 13.783179,18.266602 13.581542,17.575886 13.263405,16.663724 12.929664,15.76172 12.484496,14.558562 12.26397,14.036889 11.999,13.379884 Z"/>
 <path style="fill:#ff769d" d="m 19.102539,10.017578 c -0.0031,5e-4 -0.0027,4.77e-4 -0.0059,10e-4 -0.189056,0.03154 -0.482985,0.105097 -0.829101,0.207031 -0.692233,0.203869 -1.605446,0.522051 -2.507813,0.853516 -1.202616,0.441755 -1.722381,0.657991 -2.379882,0.919922 0.657005,0.264971 1.178678,0.485496 2.381836,0.930664 0.902004,0.333742 1.814166,0.651879 2.504882,0.853516 0.345358,0.100818 0.638085,0.172307 0.824219,0.201171 0.209507,-0.393661 0.40463,-1.178097 0.40918,-2.001976 0.0045,-0.824659 -0.187823,-1.593681 -0.397461,-1.964844 z"/>
 <path style="fill:#f9a726" d="M 4.8974609,10.017578 C 4.6878225,10.388741 4.4954469,11.157763 4.5,11.982422 c 0.00455,0.823879 0.1996729,1.608292 0.4091797,2.001953 0.1861338,-0.02886 0.4788608,-0.100354 0.8242188,-0.201172 0.690716,-0.201637 1.602878,-0.519774 2.5048825,-0.853515 1.2031575,-0.445169 1.724831,-0.665694 2.381836,-0.930664 C 9.9626155,11.737092 9.4428505,11.520856 8.2402345,11.079102 7.3378675,10.747637 6.4246545,10.429455 5.732422,10.225586 5.3863055,10.123651 5.0923765,10.0501 4.9033203,10.018555 c -0.00313,-5.5e-4 -0.00278,-4.8e-4 -0.00586,-10e-4 z"/>
 <path style="fill:#89dc3c" d="m 15.621094,5.576172 c -0.0019,0.0027 -0.0019,0.0022 -0.0039,0.0049 -0.111377,0.1559895 -0.266791,0.4156025 -0.439453,0.732422 -0.345325,0.6336395 -0.766233,1.503526 -1.169922,2.3759765 -0.537918,1.1625455 -0.752485,1.6837805 -1.032227,2.3339845 0.652027,-0.277253 1.175552,-0.490513 2.34082,-1.026367 C 16.190217,9.595265 17.0614,9.175927 17.692389,8.8300955 18.007884,8.65718 18.264973,8.4998965 18.416998,8.3886895 18.286663,7.9621565 17.870228,7.2702255 17.291022,6.684588 16.711373,6.0985025 16.031876,5.6906515 15.6211,5.5761895 Z"/>
 <path style="fill:#dc6e33" d="m 11.023438,12.975586 c -0.650204,0.279742 -1.1714395,0.494309 -2.333985,1.032227 -0.8724505,0.403689 -1.742337,0.824596 -2.3759765,1.169922 -0.3168195,0.172662 -0.5764325,0.328076 -0.732422,0.439453 -0.00275,0.0019 -0.00225,0.002 -0.0049,0.0039 0.114462,0.410775 0.522313,1.090272 1.1083985,1.669921 0.5856375,0.579206 1.2775685,0.995641 1.7041015,1.125976 0.111207,-0.152025 0.2684905,-0.409114 0.441406,-0.724609 0.3458315,-0.630989 0.7651695,-1.502171 1.1669925,-2.375977 0.535854,-1.165267 0.749115,-1.688793 1.026367,-2.34082 z"/>
 <path style="fill:#dd4f3c" d="m 12.976563,12.975586 c 0.277252,0.652027 0.490513,1.175552 1.026367,2.34082 0.401823,0.873805 0.821161,1.744987 1.166992,2.375977 0.172916,0.315494 0.330199,0.572583 0.441406,0.724609 0.426533,-0.130336 1.118464,-0.54677 1.704101,-1.125977 0.586086,-0.579649 0.993937,-1.259146 1.108399,-1.669921 -0.0027,-0.0019 -0.0022,-0.0019 -0.0049,-0.0039 -0.15599,-0.111377 -0.415602,-0.266791 -0.732422,-0.439453 -0.63364,-0.345325 -1.503526,-0.766233 -2.375976,-1.169922 -1.162546,-0.537918 -1.683781,-0.752485 -2.333985,-1.032227 z"/>
 <path style="fill:#f8e12e" d="M 8.378906,5.576172 C 7.9681295,5.690634 7.2886335,6.098485 6.7089845,6.6845705 6.129778,7.270208 5.7133435,7.962139 5.583008,8.388672 5.7350335,8.499879 5.9921225,8.6571625 6.307617,8.830078 6.9386065,9.1759095 7.809789,9.5952475 8.683594,9.9970705 9.848862,10.532925 10.372387,10.746185 11.024414,11.023438 10.744673,10.373234 10.530105,9.8519985 9.9921875,8.689453 9.5884985,7.8170025 9.167591,6.947116 8.8222655,6.3134765 8.649603,5.996657 8.494189,5.737044 8.3828125,5.5810545 c -0.00195,-0.00275 -0.002,-0.00225 -0.0039,-0.0049 z"/>
</svg>

<svg xmlns="http://www.w3.org/2000/svg" width="24" height="24"><path style="opacity:.2" d="M12 2.5a10 10 0 0 0-10 10 10 10 0 0 0 10 10 10 10 0 0 0 10-10 10 10 0 0 0-10-10z"/><path style="fill:#ff9426" d="M12 2A10 10 0 0 0 2 12a10 10 0 0 0 10 10 10 10 0 0 0 10-10A10 10 0 0 0 12 2z"/><circle style="opacity:.2" cx="12" cy="12.5" r="8.5"/><circle style="fill:#f4f4f7" cx="12" cy="12" r="8.5"/><path style="opacity:.2;fill:#f4f4f7" d="M12 2a10 10 0 0 0-9.93 8.926A10 9.5 0 0 1 12 2.5a10 9.5 0 0 1 9.961 8.723A10 10 0 0 0 12 2zm9.961 9.223A10 10 0 0 1 22 12a10 9.5 0 0 0-.039-.777zm-19.89-.297a10 9.5 0 0 0-.025.196 10 10 0 0 1 .025-.196zm-.025.196A10 10 0 0 0 2 12a10 9.5 0 0 1 .046-.878z"/><path style="fill:#d2e015" d="M11.982 4.5c-.824-.005-1.593.188-1.964.397v.006c.032.19.106.483.208.83.203.692.522 1.605.853 2.507.442 1.203.658 1.723.92 2.38.265-.657.486-1.179.93-2.382.334-.902.653-1.814.854-2.505.101-.345.173-.638.201-.824-.393-.21-1.178-.404-2.002-.409z"/><path style="fill:#c74a30" d="M11.999 13.38c-.262.657-.478 1.177-.92 2.38a43.87 43.87 0 0 0-.853 2.508c-.102.346-.176.64-.207.829l-.001.006c.37.21 1.14.402 1.964.397.824-.004 1.609-.2 2.002-.41a7.296 7.296 0 0 0-.2-.823c-.202-.691-.52-1.603-.854-2.505-.446-1.203-.666-1.725-.931-2.382z"/><path style="fill:#ff769d" d="M19.103 10.018h-.006c-.19.032-.483.106-.83.208a43.87 43.87 0 0 0-2.507.853c-1.203.442-1.723.658-2.38.92.657.265 1.179.486 2.382.93.902.334 1.814.653 2.505.854.345.101.638.173.824.201.21-.393.404-1.178.409-2.002.004-.824-.188-1.593-.398-1.964z"/><path style="fill:#f9a726" d="M4.897 10.018c-.21.37-.402 1.14-.397 1.964.005.824.2 1.609.41 2.002.185-.028.478-.1.823-.2.691-.202 1.603-.52 2.505-.854 1.203-.445 1.725-.666 2.382-.931-.657-.262-1.177-.478-2.38-.92a43.87 43.87 0 0 0-2.508-.853 7.877 7.877 0 0 0-.829-.207l-.006-.001z"/><path style="fill:#89dc3c" d="m15.621 5.576-.004.005a7.882 7.882 0 0 0-.44.732 43.809 43.809 0 0 0-1.17 2.376c-.537 1.163-.752 1.684-1.031 2.334.652-.277 1.175-.49 2.34-1.026a40.945 40.945 0 0 0 2.376-1.167c.316-.173.573-.33.725-.441-.13-.427-.547-1.119-1.126-1.704-.58-.586-1.26-.994-1.67-1.109z"/><path style="fill:#dc6e33" d="M11.023 12.976c-.65.28-1.171.494-2.334 1.032-.872.404-1.742.824-2.376 1.17a7.882 7.882 0 0 0-.732.44l-.005.003c.115.41.522 1.09 1.109 1.67.585.58 1.277.996 1.704 1.126.11-.152.268-.41.441-.725.346-.63.765-1.502 1.167-2.376.536-1.165.75-1.688 1.026-2.34z"/><path style="fill:#dd4f3c" d="M12.977 12.976c.277.652.49 1.175 1.026 2.34.402.874.821 1.745 1.167 2.376.173.316.33.573.441.725.427-.13 1.119-.547 1.704-1.126.587-.58.994-1.26 1.109-1.67l-.005-.004a7.882 7.882 0 0 0-.732-.44 43.81 43.81 0 0 0-2.376-1.17c-1.163-.537-1.684-.752-2.334-1.031z"/><path style="fill:#f8e12e" d="M8.379 5.576c-.41.115-1.09.522-1.67 1.109-.58.585-.996 1.277-1.126 1.704.152.11.41.268.725.441.63.346 1.502.765 2.376 1.167 1.165.536 1.688.75 2.34 1.026-.28-.65-.494-1.171-1.032-2.334a43.809 43.809 0 0 0-1.17-2.376 7.882 7.882 0 0 0-.44-.732l-.003-.005z"/></svg>
